Hatter-kde-dark/actions/22/filename-title-amarok.svg

<?xml version="1.0" encoding="UTF-8"?>
<svg viewBox="0 0 22 22" xmlns="http://www.w3.org/2000/svg">
 <defs id="defs3051">
  <style id="current-color-scheme" type="text/css">.ColorScheme-Text {
        color:#dedede;
      }
      .ColorScheme-Highlight {
        color:#3daee9;
      }</style>
 </defs>
 <path class="ColorScheme-Text" d="m4 3v10 6h1 9l4-4v-1.4062-10.594h-1-12-1zm1 1h12v10h-3v1 3h-9v-5-9z" fill="currentColor"/>
 <path class="ColorScheme-Highlight" d="m7 6v2h8v-2h-8z" fill="currentColor"/>
</svg>

<svg xmlns="http://www.w3.org/2000/svg" viewBox="0 0 22 22">
  <defs id="defs3051">
    <style type="text/css" id="current-color-scheme">
      .ColorScheme-Text {
        color:#dedede;
      }
      .ColorScheme-Highlight {
        color:#3daee9;
      }
      </style>
  </defs>
 <path 
     style="fill:currentColor;fill-opacity:1;stroke:none" 
     d="M 4 3 L 4 13 L 4 19 L 5 19 L 14 19 L 18 15 L 18 13.59375 L 18 3 L 17 3 L 5 3 L 4 3 z M 5 4 L 17 4 L 17 14 L 14 14 L 14 15 L 14 18 L 5 18 L 5 13 L 5 4 z "
     class="ColorScheme-Text"
     />
 <path 
     style="fill:currentColor;fill-opacity:1;stroke:none" 
     d="M 7 6 L 7 8 L 15 8 L 15 6 L 7 6 z "
     class="ColorScheme-Highlight"
     />
</svg>
